X:2949
T:Der er et yndigt land
T:Danish national anthem
C:H. E. Kr\oyer
O:Denmark
Z:Transcribed by Frank Nordberg - http://www.musicaviva.com
F:http://abc.musicaviva.com/tunes/kroyer-h-e/der-er-et-yndigt-land.abc
M:C
L:1/8
K:D
D|A3AF2D2|B4z2zD|d3dc2B2|B2A2z2A2|
w:Der er et yn-digt land, det st\aar med bre-de b\o-ge n\aer
C3CD2E2|F2^G2A2B2|A4^G4|A4z2z|:A|
w:sal-ten \os-ter-strand, n\aer sal-ten \os-ter-strand; det
c3cB2A2|A3dd2F2|B3BB2B2|B4^A2 z =A|
